X: 211
T: Maonuzi guandeng
%%abc-version 2.0
%%abcx-abcm2ps-target-version 5.9.1 (29 Sep 2008)
%%abc-creator hum2abc beta
%%abcx-conversion-date 2013/10/02 07:52:29
%%abc-edited-by Helmut Schaffrath
%%humdrum-veritas 411132998
%%humdrum-veritas-data 4202427367
%%continueall 1
%%barnumbers 0
L: 1/8
M: 2/4
K: F
c c A d/ f/ [I:setbarnb 1]| 
c4 | 
f d/ c/ A c | 
G4 | 
c c d c | 
A c_E2 | 
G/ G/ G/ G/ G C | 
D F G G | 
G D/ F/C2 |]  



